X:18
T:Fill the Tankard
C: Browne ms Ambleside
M:9/8
L:1/8
K:F
fgf e2 c d2e|f2a gec d2e|fgf A2f d2e|dcB A2G F3:|
|:a2f d2f agf|g2e c2e gfe|f2e d2f fga|1g2e cde fgf:|2g2e cde f3||

